icons/op-add-attachment-16.svg

<svg width="16" height="16" viewBox="0 0 16 16" fill="none" xmlns="http://www.w3.org/2000/svg">
<path d="M12.212 3.01998C11.8829 2.69197 11.437 2.50804 10.9724 2.5086C10.5077 2.50916 10.0623 2.69418 9.73401 3.02298L3.90401 8.85298C3.62483 9.13236 3.40342 9.46399 3.25243 9.82895C3.10144 10.1939 3.02382 10.585 3.02401 10.98C3.02401 11.775 3.33901 12.531 3.90401 13.096C4.47101 13.663 5.23701 13.986 6.03001 13.986C6.57053 13.986 7.09606 13.8357 7.55601 13.5586C7.91149 13.3444 8.38409 13.3338 8.67769 13.6272C8.97037 13.9196 8.97451 14.3997 8.6386 14.6412C8.36314 14.8393 8.06547 15.0059 7.75104 15.1376C7.20587 15.3658 6.62102 15.4842 6.03001 15.486C4.83001 15.486 3.68501 14.999 2.84301 14.156C2.42463 13.7394 2.09265 13.2443 1.86612 12.6991C1.6396 12.1539 1.523 11.5694 1.52301 10.979C1.52301 9.78399 1.99801 8.63799 2.84301 7.79298L8.67301 1.96298C9.12721 1.50684 9.70663 1.19585 10.3378 1.06945C10.969 0.943039 11.6235 1.00691 12.2183 1.25296C12.8131 1.49901 13.3215 1.91615 13.6789 2.4515C14.0364 2.98685 14.2268 3.61628 14.226 4.25998C14.226 5.12298 13.883 5.95098 13.273 6.56098L7.43901 12.39C7.06401 12.767 6.55501 12.98 6.02301 12.983C5.76022 12.9819 5.50023 12.9289 5.25794 12.8271C5.01564 12.7254 4.79581 12.5768 4.61101 12.39C4.4244 12.2048 4.27629 11.9845 4.17521 11.7419C4.07414 11.4992 4.0221 11.2389 4.0221 10.976C4.0221 10.7131 4.07414 10.4528 4.17521 10.2101C4.27629 9.96743 4.4244 9.74716 4.61101 9.56199L10.091 4.08198C10.2333 3.94958 10.4213 3.87747 10.6156 3.88083C10.81 3.88419 10.9954 3.96274 11.133 4.09998C11.2703 4.23759 11.3488 4.42304 11.3522 4.61735C11.3555 4.81167 11.2834 4.99972 11.151 5.14198L5.67101 10.622C5.62362 10.6679 5.58594 10.7228 5.56021 10.7835C5.53447 10.8442 5.52121 10.9095 5.52121 10.9755C5.52121 11.0414 5.53447 11.1067 5.56021 11.1674C5.58594 11.2282 5.62362 11.2831 5.67101 11.329C5.7166 11.3766 5.77118 11.4148 5.83159 11.4412C5.89201 11.4677 5.95707 11.4818 6.02301 11.483C6.15733 11.4805 6.28526 11.4252 6.37901 11.329L12.212 5.50198C12.5408 5.1729 12.7256 4.72671 12.7256 4.26148C12.7256 3.79626 12.5408 3.34907 12.212 3.01998Z" fill="#636C76"/>
<path d="M13 10.25C13 9.83577 12.6642 9.49998 12.25 9.49998C11.8358 9.49998 11.5 9.83577 11.5 10.25V11.5H10.25C9.83579 11.5 9.5 11.8358 9.5 12.25C9.5 12.6642 9.83579 13 10.25 13H11.5V14.25C11.5 14.6642 11.8358 15 12.25 15C12.6642 15 13 14.6642 13 14.25V13H14.25C14.6642 13 15 12.6642 15 12.25C15 11.8358 14.6642 11.5 14.25 11.5H13V10.25Z" fill="#636C76"/>
</svg>

<svg xmlns="http://www.w3.org/2000/svg" width="16" height="16" viewBox="0 0 16 16"><path d="M12.212 3.02a1.75 1.75 0 0 0-2.478.003l-5.83 5.83a3.007 3.007 0 0 0-.88 2.127c0 .795.315 1.551.88 2.116.567.567 1.333.89 2.126.89.541 0 1.066-.15 1.526-.427.355-.215.828-.225 1.122.068.292.293.297.773-.039 1.014a4.499 4.499 0 0 1-2.609.845c-1.2 0-2.345-.487-3.187-1.33a4.493 4.493 0 0 1 0-6.363l5.83-5.83a3.253 3.253 0 1 1 4.6 4.598L7.439 12.39c-.375.377-.884.59-1.416.593a1.989 1.989 0 0 1-1.412-.593 1.98 1.98 0 0 1-.589-1.414 1.995 1.995 0 0 1 .589-1.414l5.48-5.48a.75.75 0 0 1 1.06 1.06l-5.48 5.48a.503.503 0 0 0-.15.354.483.483 0 0 0 .15.353c.046.048.1.086.161.112.06.027.125.041.191.042a.514.514 0 0 0 .356-.154l5.833-5.827a1.754 1.754 0 0 0 0-2.482Z"/><path d="M13 10.25a.75.75 0 0 0-1.5 0v1.25h-1.25a.75.75 0 0 0 0 1.5h1.25v1.25a.75.75 0 0 0 1.5 0V13h1.25a.75.75 0 0 0 0-1.5H13v-1.25Z"/></svg>
